assets/img/southwest.svg

<svg fill="none" height="19" viewBox="0 0 139 19" width="139" xmlns="http://www.w3.org/2000/svg"><g fill="#96ff94"><path d="m12.0837 5.451.8359-3.58913s-2.7942-1.166474-5.46902-1.166474c-5.23021 0-7.069144 2.961034-7.260202 5.249114-.2388229 2.91618 1.767282 4.41909 3.892802 5.06969 3.60622 1.0991 5.32575 1.4132 5.13469 2.6021-.1433.8748-.71647 1.7048-2.91364 1.7048-2.88975 0-5.373503-1.2786-5.373503-1.2786l-.8358784 3.6116s3.2718714 1.2786 6.2571514 1.2786c4.6332 0 7.1886-2.6246 7.1886-5.7426 0-2.7592-2.2927-4.10509-4.29885-4.68833-3.72563-1.07674-4.89586-1.27863-4.82421-2.60212.04776-1.05431 1.26575-1.52539 3.15245-1.45809 2.22105.11216 4.51371 1.00944 4.51371 1.00944z"/><path d="m110.694 9.1523.692-3.18536s-2.34-.51594-4.418-.51594c-4.06 0-5.541 2.04133-5.684 3.81346-.167 2.26564 1.409 3.49944 3.081 4.01534 2.794.8524 3.821 1.144 3.678 1.7946-.096.4038-.478.7627-2.174.7627-2.245 0-3.916-.673-3.916-.673l-.574 3.0283s2.532.7627 4.849.7627c3.725 0 5.803-1.7945 5.803-4.2172 0-2.1311-1.314-3.1854-3.439-3.7686-2.508-.673-3.487-.9646-3.32-1.59268.167-.67296.836-.91971 2.412-.82998 1.672.08972 3.01.60566 3.01.60566z"/><path d="m28.658 12.1806c0 3.7238-2.7703 6.7297-7.093 6.7297s-7.093-3.0059-7.093-6.7297c0-3.72369 2.7703-6.7296 7.093-6.7296s7.093 3.00591 7.093 6.7296zm-7.1169-3.27505c-1.9106 0-3.1525 1.45805-3.1525 3.27505 0 1.7946 1.218 3.2751 3.1525 3.2751 1.9106 0 3.1525-1.4581 3.1525-3.2751s-1.218-3.27505-3.1525-3.27505z"/><path d="m33.6016 13.7509v-7.6045h-3.8928v8.098c0 3.0956 2.2927 4.6883 6.2572 4.6883 3.248 0 6.1138-.9197 6.1138-.9197v-11.8666h-3.8928v9.085c-.2866.1122-1.624.2916-2.6748.2019-1.0986-.0673-1.9106-.5159-1.9106-1.6824z"/><path d="m60.9468 5.47344c-1.1224 0-2.5076.35891-3.2719.58323v-6.05667h-3.8928v18.9327h3.8928v-9.51121c.406-.15703 1.624-.51594 2.5793-.49351 1.3613.04487 1.9106.47108 1.9106 1.63752v8.3672h3.8928v-8.7485c.0239-3.11808-1.5284-4.71076-5.1108-4.71076z"/><path d="m52.4447 15.4109c-2.6987.5608-3.2241 0-3.2241-1.3011v-4.97993h3.2003v-2.98347h-3.2241v-3.67887h-3.8929v3.67887h-1.9822v2.98347h1.9822v4.97993c0 3.7237 1.5046 5.8996 7.523 4.2845z"/><path d="m121.369 15.4109c-2.699.5608-3.224 0-3.224-1.3011v-4.97993h3.224v-2.98347h-3.224v-3.67887h-3.893v3.67887h-1.982v2.98347h1.982v4.97993c0 3.7237 1.505 5.8996 7.523 4.2845z"/><path d="m83.7782 6.12397-2.4598 7.11093-2.4838-7.11093h-3.439l-2.4599 7.11093-2.4599-7.11093h-4.2032l4.8003 12.78633h3.5823l2.4599-6.9316 2.4837 6.9316h3.5824l4.8003-12.78633z"/><path d="m99.8032 17.7214s-2.4121 1.1889-5.3018 1.1889c-5.1586 0-7.0931-3.0059-7.0931-6.7297 0-3.81342 2.651-6.7296 7.0931-6.7296 4.1316 0 6.1856 3.05077 6.0186 6.7296-.024.4262-.072.8525-.12 1.2787h-8.8123c.1433.7851.7643 2.2432 3.2719 2.2432 2.6032 0 4.3227-.9422 4.3227-.9422zm-3.2957-6.7297c-.1672-1.48048-.9314-2.57966-2.3405-2.57966-1.2896 0-2.221 1.09918-2.5076 2.57966z"/><path d="m138.086 7.49233c-1.528-2.82645-5.684-2.26565-7.045-1.21134-1.361-1.03188-5.517-1.61511-7.045 1.21134-1.743 3.23027.74 7.62687 7.045 11.50767 6.305-3.9032 8.789-8.2774 7.045-11.50767z"/><path d="m138.182 10.4982c.191-1.00942.048-1.974-.43-2.87128-.884-1.63755-2.651-1.8843-3.606-1.8843-1.027 0-2.078.33648-2.699.67296 3.033 1.57025 6.09 3.65642 6.735 4.08262z"/><path d="m123.877 8.83825c-.574 2.93865 2.03 6.55015 7.14 9.73555 1.075-.673 2.03-1.3684 2.89-2.0638-.955-.7627-6.305-4.9799-10.03-7.67175z"/><path d="m134.6 15.8595c1.648-1.5029 2.77-3.0283 3.272-4.464-.669-.5384-3.678-2.96103-6.902-4.73316-.669-.40378-1.601-.91972-3.105-.91972-.979 0-2.723.24675-3.606 1.8843-.144.26918-.263.53837-.335.80755 3.941 2.48993 9.72 6.72963 10.676 7.42503z"/></g></svg>

<svg width="139" height="19" viewBox="0 0 139 19" fill="none" xmlns="http://www.w3.org/2000/svg">
<path d="M12.0837 5.451L12.9196 1.86187C12.9196 1.86187 10.1254 0.695396 7.45058 0.695396C2.22037 0.695396 0.381436 3.65643 0.190378 5.94451C-0.0484449 8.86069 1.95766 10.3636 4.08318 11.0142C7.6894 12.1133 9.40893 12.4274 9.21787 13.6163C9.07457 14.4911 8.5014 15.3211 6.30423 15.3211C3.41448 15.3211 0.930727 14.0425 0.930727 14.0425L0.0948486 17.6541C0.0948486 17.6541 3.36672 18.9327 6.352 18.9327C10.9852 18.9327 13.5406 16.3081 13.5406 13.1901C13.5406 10.4309 11.2479 9.08501 9.24175 8.50177C5.51612 7.42503 4.34589 7.22314 4.41754 5.89965C4.4653 4.84534 5.68329 4.37426 7.56999 4.44156C9.79104 4.55372 12.0837 5.451 12.0837 5.451Z" fill="#96FF94"/>
<path d="M110.694 9.1523L111.386 5.96694C111.386 5.96694 109.046 5.451 106.968 5.451C102.908 5.451 101.427 7.49233 101.284 9.26446C101.117 11.5301 102.693 12.7639 104.365 13.2798C107.159 14.1322 108.186 14.4238 108.043 15.0744C107.947 15.4782 107.565 15.8371 105.869 15.8371C103.624 15.8371 101.953 15.1641 101.953 15.1641L101.379 18.1924C101.379 18.1924 103.911 18.9551 106.228 18.9551C109.953 18.9551 112.031 17.1606 112.031 14.7379C112.031 12.6068 110.717 11.5525 108.592 10.9693C106.084 10.2963 105.105 10.0047 105.272 9.37662C105.439 8.70366 106.108 8.45691 107.684 8.54664C109.356 8.63636 110.694 9.1523 110.694 9.1523Z" fill="#96FF94"/>
<path d="M28.658 12.1806C28.658 15.9044 25.8877 18.9103 21.565 18.9103C17.2423 18.9103 14.472 15.9044 14.472 12.1806C14.472 8.45691 17.2423 5.451 21.565 5.451C25.8877 5.451 28.658 8.45691 28.658 12.1806ZM21.5411 8.90555C19.6305 8.90555 18.3886 10.3636 18.3886 12.1806C18.3886 13.9752 19.6066 15.4557 21.5411 15.4557C23.4517 15.4557 24.6936 13.9976 24.6936 12.1806C24.6936 10.3636 23.4756 8.90555 21.5411 8.90555Z" fill="#96FF94"/>
<path d="M33.6016 13.7509V6.1464H29.7088V14.2444C29.7088 17.34 32.0015 18.9327 35.966 18.9327C39.214 18.9327 42.0798 18.013 42.0798 18.013V6.1464H38.187V15.2314C37.9004 15.3436 36.563 15.523 35.5122 15.4333C34.4136 15.366 33.6016 14.9174 33.6016 13.7509Z" fill="#96FF94"/>
<path d="M60.9468 5.47344C59.8244 5.47344 58.4392 5.83235 57.6749 6.05667V0H53.7821V18.9327H57.6749V9.42149C58.0809 9.26446 59.2989 8.90555 60.2542 8.92798C61.6155 8.97285 62.1648 9.39906 62.1648 10.5655V18.9327H66.0576V10.1842C66.0815 7.06612 64.5292 5.47344 60.9468 5.47344Z" fill="#96FF94"/>
<path d="M52.4447 15.4109C49.746 15.9717 49.2206 15.4109 49.2206 14.1098V9.12987H52.4209V6.1464H49.1968V2.46753H45.3039V6.1464H43.3217V9.12987H45.3039V14.1098C45.3039 17.8335 46.8085 20.0094 52.8269 18.3943L52.4447 15.4109Z" fill="#96FF94"/>
<path d="M121.369 15.4109C118.67 15.9717 118.145 15.4109 118.145 14.1098V9.12987H121.369V6.1464H118.145V2.46753H114.252V6.1464H112.27V9.12987H114.252V14.1098C114.252 17.8335 115.757 20.0094 121.775 18.3943L121.369 15.4109Z" fill="#96FF94"/>
<path d="M83.7782 6.12397L81.3184 13.2349L78.8346 6.12397H75.3956L72.9357 13.2349L70.4758 6.12397H66.2726L71.0729 18.9103H74.6552L77.1151 11.9787L79.5988 18.9103H83.1812L87.9815 6.12397H83.7782Z" fill="#96FF94"/>
<path d="M99.8032 17.7214C99.8032 17.7214 97.3911 18.9103 94.5014 18.9103C89.3428 18.9103 87.4083 15.9044 87.4083 12.1806C87.4083 8.36718 90.0593 5.451 94.5014 5.451C98.633 5.451 100.687 8.50177 100.52 12.1806C100.496 12.6068 100.448 13.0331 100.4 13.4593H91.5877C91.731 14.2444 92.352 15.7025 94.8596 15.7025C97.4628 15.7025 99.1823 14.7603 99.1823 14.7603L99.8032 17.7214ZM96.5075 10.9917C96.3403 9.51122 95.5761 8.41204 94.167 8.41204C92.8774 8.41204 91.946 9.51122 91.6594 10.9917H96.5075Z" fill="#96FF94"/>
<path d="M138.086 7.49233C136.558 4.66588 132.402 5.22668 131.041 6.28099C129.68 5.24911 125.524 4.66588 123.996 7.49233C122.253 10.7226 124.736 15.1192 131.041 19C137.346 15.0968 139.83 10.7226 138.086 7.49233Z" fill="#96FF94"/>
<path d="M138.182 10.4982C138.373 9.48878 138.23 8.5242 137.752 7.62692C136.868 5.98937 135.101 5.74262 134.146 5.74262C133.119 5.74262 132.068 6.0791 131.447 6.41558C134.48 7.98583 137.537 10.072 138.182 10.4982Z" fill="#96FF94"/>
<path d="M123.877 8.83825C123.303 11.7769 125.907 15.3884 131.017 18.5738C132.092 17.9008 133.047 17.2054 133.907 16.51C132.952 15.7473 127.602 11.5301 123.877 8.83825Z" fill="#96FF94"/>
<path d="M134.6 15.8595C136.248 14.3566 137.37 12.8312 137.872 11.3955C137.203 10.8571 134.194 8.43447 130.97 6.66234C130.301 6.25856 129.369 5.74262 127.865 5.74262C126.886 5.74262 125.142 5.98937 124.259 7.62692C124.115 7.8961 123.996 8.16529 123.924 8.43447C127.865 10.9244 133.644 15.1641 134.6 15.8595Z" fill="#96FF94"/>
</svg>
